assets/icons/qvision/edit_location.svg

<svg xmlns="http://www.w3.org/2000/svg" height="24" viewBox="0 0 24 24" width="24"><path d="M0 0h24v24H0z" fill="none"/><path d="M12 2C8.14 2 5 5.14 5 9c0 5.25 7 13 7 13s7-7.75 7-13c0-3.86-3.14-7-7-7zm-1.56 10H9v-1.44l3.35-3.34 1.43 1.43L10.44 12zm4.45-4.45l-.7.7-1.44-1.44.7-.7c.15-.15.39-.15.54 0l.9.9c.15.15.15.39 0 .54z"/></svg>

<svg width="24" height="24" viewBox="0 0 24 24" fill="none" xmlns="http://www.w3.org/2000/svg">
<g clip-path="url(#clip0_147_5228)">
<path d="M12 2C8.14 2 5 5.14 5 9C5 14.25 12 22 12 22C12 22 19 14.25 19 9C19 5.14 15.86 2 12 2ZM10.44 12H9V10.56L12.35 7.22L13.78 8.65L10.44 12ZM14.89 7.55L14.19 8.25L12.75 6.81L13.45 6.11C13.6 5.96 13.84 5.96 13.99 6.11L14.89 7.01C15.04 7.16 15.04 7.4 14.89 7.55Z" fill="#323232"/>
</g>
<defs>
<clipPath id="clip0_147_5228">
<rect width="24" height="24" fill="white"/>
</clipPath>
</defs>
</svg>
